X:43
T:At Close of Day. WHG.042
T:Favourite Tyrolien Air in William Tell,aka. WHG.042
C:Rossini
R:Air
S:W.H.Giles MS,Bampton,Oxfordshire,1839p40, p41
O:England
H:donated by Mrs W.R.Kettlewell to VWML,Apr 1927.
A:Bampton, Oxfordshire
N:Also used for an Andy Stewart hit single “A Scottish Soldier”.
N:Believed by some to be a Scottish pipe tune.
N:Bar 6 in MS is |d2 eBe|.
Z:PJHeadford – VMP 2009
M:3/4
L:1/8
Q:1/4=160
K:G
DGA|B3GBc|d3eBe|(dc).A.D.Ae|(dB).G .D.G.A|\
B3 GBc|d3 eBe|(dc)ADFA|G6||
g4(fe)|(ed)d2e2|(dc)c2d2|(cB)B2dd|\
g4(fe)|(cB)B2e2|(d^c)c2c2|d3AeA|
d3AcA|d3AeA|e3 AcA|(de)(ce)(de)|\
(cd)(Bd)(Ad)|G2″ Pia”zDGA|B3GBc|d3eBe|
dcAFAe|(dB)G” f Ritard”DGA|B3GBc|d3eBe|\
(dc)A DGA|G2″ Pia”z.F.G.A|B3FBF|B2zcBA|
B3DBD|G2zFGA|B3FBF|B2zcBA|\
G3DBD|G4d2|” For”g4fe|(ed)d2e2|
(dc)c2d2|cBA2G2|g4fe|(ed)d2e2|\
dcc2f2|g2z|]
W:The MS has this with a key signature of C.

